!!!SOCIAL_FUNCTION:	songs connected with war and hunting
!!!PDT:	1932
!!!OTL: No_36_I_Will_See_a_Bear.krn
!!!REG: Wisconsin
!!!LANG: Non-Tone
!!!LING_GROUP: Algonquin
**kern
*staff1
=1-
*clefF4
*k[f#c#g#d#]
*M2/4
4r
8E\L
8B\J
=2!|:
4B\
12A\L
12A\
12G#\J
=3
2F#\
=4
8F#\
8r
12F#\L
12E\
12C#\J
=5||
*M3/4
[2BB/
8.BB/L]
16BB/Jk
=6
4.BB/
8BB/
8BB/
8r
=7||
*M2/4
[2E\
=8
4.E\]
16r
16E\
=9||
*M3/4
2F#\
4F#\
=10
[2E\
8.E/L]
16C#/Jk
=11
2C#/
4C#/
=12||
*M2/4
2E\
=13||
*M3/4
8E\L
8E\J
4C#/
8BB/
8r
=14
4.E\
8F#\
8E\L
8E\J
=15
4C#/
2C#/
=16||
*M2/4
6BB/
6BB/
6BB/
=17
2BB/
=18
8BB/
8r
8E\L
8B\J
=19:|!
4BB/
4r
==
*-
